icons/logo-airbnb.svg

<svg width="24" height="24" viewBox="0 0 24 24" fill="none" xmlns="http://www.w3.org/2000/svg">
<path d="M12 10C10.0896 10 9.13433 11 9.13433 13C9.13433 14.5 10.5614 16.535 12 18.5C12.9552 19.5 13.4328 20 14.3881 20.5C15.3433 21 16.7761 21.5 18.6866 20C20.597 18.5 20.1194 16.5 19.1642 14C18.209 11.5 16.9356 8.5 14.3881 4.5C13.5914 3.5 12.9552 3 11.9971 3C11.0419 3 10.4468 3.45 9.61194 4.5C7.06436 8.5 5.79104 11.5 4.83582 14C3.8806 16.5 3.40299 18.5 5.31343 20C7.22388 21.5 8.65672 21 9.61194 20.5C10.5672 20 11.0448 19.5 12 18.5C13.4386 16.535 14.8657 14.5 14.8657 13C14.8657 11 13.9104 10 12 10Z" stroke="#1E293B" stroke-width="2" stroke-linecap="round" stroke-linejoin="round"/>
</svg>

<svg
  width="24"
  height="24"
  viewBox="0 0 24 24"
  xmlns="http://www.w3.org/2000/svg"
  fill="none"
  stroke="currentColor"
  stroke-width="2"
  stroke-linecap="round"
  stroke-linejoin="round"
>
  <path d="M12 10c-1.91 0-2.866 1-2.866 3 0 1.5 1.427 3.535 2.866 5.5.955 1 1.433 1.5 2.388 2 .955.5 2.388 1 4.299-.5 1.91-1.5 1.432-3.5.477-6s-2.228-5.5-4.776-9.5c-.797-1-1.433-1.5-2.39-1.5-.956 0-1.551.45-2.386 1.5-2.548 4-3.821 7-4.776 9.5-.955 2.5-1.433 4.5.477 6 1.91 1.5 3.344 1 4.299.5.955-.5 1.433-1 2.388-2 1.439-1.965 2.866-4 2.866-5.5 0-2-.956-3-2.866-3z" />
</svg>
